svgs/sharp-solid/sitemap.svg

<svg xmlns="http://www.w3.org/2000/svg" viewBox="0 0 576 512"><!--! Font Awesome Pro 6.6.0 by @fontawesome - https://fontawesome.com License - https://fontawesome.com/license (Commercial License) Copyright 2024 Fonticons, Inc. --><path d="M208 32l160 0 0 160-56 0 0 40 184 0 24 0 0 24 0 64 56 0 0 160-160 0 0-160 56 0 0-40-160 0 0 40 56 0 0 160-160 0 0-160 56 0 0-40-160 0 0 40 56 0 0 160L0 480 0 320l56 0 0-64 0-24 24 0 184 0 0-40-56 0 0-160z"/></svg>

<svg xmlns="http://www.w3.org/2000/svg" viewBox="0 0 576 512"><!--! Font Awesome Pro 6.5.2 by @fontawesome - https://fontawesome.com License - https://fontawesome.com/license (Commercial License) Copyright 2024 Fonticons, Inc. --><path d="M208 32H368V192H312v40H496h24v24 64h56V480H416V320h56V280H312v40h56V480H208V320h56V280H104v40h56V480H0V320H56V256 232H80 264V192H208V32z"/></svg>
